X: 10593
Q: "Jig."
M: 6/8
L: 1/8
K: D
d2d d>ef | {e}g2e/d/ cBA | d>ed dfa | a>ba {a}gfe |\
(fd).d (dB).B | (ge).e (ec).c | def {f}edc | ddd d2 :|
|: f/g/ |\
(af).f (fd).d | (ge).e (ec).c | d>ef e(e/f/e/d/) | cAA ABc |\
ddd (Bd).d | (ce).e (df).f | eag {g}fed | eAc d2 :|


